src/assets/svg/twitter.svg

<svg width="26" height="24" viewBox="0 0 26 24" fill="none" xmlns="http://www.w3.org/2000/svg">
<path d="M19.9314 0.856445H23.812L15.3337 10.6034L25.3084 23.864H17.4986L11.3824 15.8205L4.38256 23.864H0.49984L9.56867 13.4383L0 0.857506H8.00799L13.5368 8.20959L19.9314 0.856445ZM18.57 21.5286H20.7202L6.83958 3.06992H4.53231L18.57 21.5286Z" fill="#141416" fillOpacity="0.7"/>
</svg>

<svg xmlns="http://www.w3.org/2000/svg" width="26" height="24" fill="none"><path fill="#141416" d="M19.931.856h3.881l-8.478 9.747 9.974 13.261h-7.81l-6.116-8.044-7 8.044H.5l9.069-10.426L0 .858h8.008l5.529 7.352zM18.57 21.53h2.15L6.84 3.069H4.532z"/></svg>
